!!!OTL: DIE FRANZOSEN BRECHEN EIN
!!!ARE: Europa, Mitteleuropa, Deutschland, Franken
!!!SCT: E0342
!!!YEM: Copyright 1995, estate of Helmut Schaffrath.
**kern
*ICvox
*Ivox
*M3/4
*k[f#]
*G:
{4d
=1
4g
8g
8b
8a
8f#
=2
2g}
{4a
=3
4b
8b
8dd
8cc
8a
=4
2b}
{8g
8a
=5
4b
4b
8b
8cc
=6
4.dd
8cc}
{4b
=7
8b
8a
8a
8g
8a
8b
=8
4.cc
8b}
{4a
=9
4b
8dd
8cc
8b
8a
=10
2g}
{4a
=11
4b
8dd
8cc
8b
8a
=12
2g}
==
!!!AGN: historisches Lied, Krieg gegen Franzosen (1799)
!!!ONB: ESAC (Essen Associative Code) Database: ERK1
!!!AMT: simple triple
!!!AIN: vox
!!!EED: Helmut Schaffrath
!!!EEV: 1.0
*-
